src/status/32/element-desktop-tray.svg

<svg width="32" height="32" viewBox="0 0 32 32" xmlns="http://www.w3.org/2000/svg">
 <path d="m14.136719 4.363281c-0.769531 0-1.394531 0.625-1.394531 1.394531 0 0.773438 0.625 1.398438 1.394531 1.398438 3.601562 0 6.519531 2.917969 6.519531 6.515625 0 0.773437 0.625 1.394531 1.394531 1.394531 0.773438 0 1.394531-0.621094 1.394531-1.394531 0-5.140625-4.164062-9.308594-9.308593-9.308594zm-0.464844 4.191407c-5.140625 0-9.308594 4.164062-9.308594 9.308593 0 0.769531 0.625 1.394531 1.394531 1.394531 0.773438 0 1.398438-0.625 1.398438-1.394531 0-3.601562 2.917969-6.519531 6.515625-6.519531 0.773437 0 1.394531-0.625 1.394531-1.394531 0-0.773438-0.621094-1.394531-1.394531-1.394531zm12.570313 4.1875c-0.773438 0-1.398438 0.625-1.398438 1.394531 0 3.601562-2.917969 6.519531-6.515625 6.519531-0.773437 0-1.394531 0.625-1.394531 1.394531 0 0.773438 0.621094 1.394531 1.394531 1.394531 5.140625 0 9.308594-4.164062 9.308594-9.308593 0-0.769531-0.625-1.394531-1.394531-1.394531zm-16.292969 4.191406c-0.773438 0-1.394531 0.621094-1.394531 1.394531 0 5.140625 4.164062 9.308594 9.308593 9.308594 0.769531 0 1.394531-0.625 1.394531-1.394531 0-0.773438-0.625-1.398438-1.394531-1.398438-3.601562 0-6.519531-2.917969-6.519531-6.515625 0-0.773437-0.625-1.394531-1.394531-1.394531z" fill="rgb(18.039216%, 20.392157%, 25.098041%)"/>
</svg>

<svg xmlns="http://www.w3.org/2000/svg" xmlns:xlink="http://www.w3.org/1999/xlink" width="32" height="32" viewBox="0 0 32 32">
<path fill-rule="nonzero" fill="rgb(18.039216%, 20.392157%, 25.098041%)" fill-opacity="1" d="M 14.136719 4.363281 C 13.367188 4.363281 12.742188 4.988281 12.742188 5.757812 C 12.742188 6.53125 13.367188 7.15625 14.136719 7.15625 C 17.738281 7.15625 20.65625 10.074219 20.65625 13.671875 C 20.65625 14.445312 21.28125 15.066406 22.050781 15.066406 C 22.824219 15.066406 23.445312 14.445312 23.445312 13.671875 C 23.445312 8.53125 19.28125 4.363281 14.136719 4.363281 Z M 13.671875 8.554688 C 8.53125 8.554688 4.363281 12.71875 4.363281 17.863281 C 4.363281 18.632812 4.988281 19.257812 5.757812 19.257812 C 6.53125 19.257812 7.15625 18.632812 7.15625 17.863281 C 7.15625 14.261719 10.074219 11.34375 13.671875 11.34375 C 14.445312 11.34375 15.066406 10.71875 15.066406 9.949219 C 15.066406 9.175781 14.445312 8.554688 13.671875 8.554688 Z M 26.242188 12.742188 C 25.46875 12.742188 24.84375 13.367188 24.84375 14.136719 C 24.84375 17.738281 21.925781 20.65625 18.328125 20.65625 C 17.554688 20.65625 16.933594 21.28125 16.933594 22.050781 C 16.933594 22.824219 17.554688 23.445312 18.328125 23.445312 C 23.46875 23.445312 27.636719 19.28125 27.636719 14.136719 C 27.636719 13.367188 27.011719 12.742188 26.242188 12.742188 Z M 9.949219 16.933594 C 9.175781 16.933594 8.554688 17.554688 8.554688 18.328125 C 8.554688 23.46875 12.71875 27.636719 17.863281 27.636719 C 18.632812 27.636719 19.257812 27.011719 19.257812 26.242188 C 19.257812 25.46875 18.632812 24.84375 17.863281 24.84375 C 14.261719 24.84375 11.34375 21.925781 11.34375 18.328125 C 11.34375 17.554688 10.71875 16.933594 9.949219 16.933594 Z M 9.949219 16.933594 "/>
</svg>
